app/dist/common/images/jade-bird-fire-co.svg

<svg height="18" viewBox="0 0 18 18" width="18" xmlns="http://www.w3.org/2000/svg"><path d="m0 0h18v18h-18z" fill="#f0f3fa"/><path d="m10.97 7h-6.07l.7 1.42-1.6 1.58h6.1l1.51-1.58z" fill="#2dbdf1"/><path d="m13.65 10h-2.98l1.54-1.54-.61-1.46h2.6l.8 1.46-1.36 1.54z" fill="#198fc1"/><path d="m12.3 4h-5.51l1.3 2.5h3.76l.77 1.17 1.28-1.4zm-2.76 10h-6.54l3.26-3h3.9l1.84-2 .87 1.45z" fill="#2dbdf1"/></svg>

<!-- by TradingView --><svg width="18" height="18" viewBox="0 0 18 18" xmlns="http://www.w3.org/2000/svg"><path fill="#F0F3FA" d="M0 0h18v18H0z"/><path d="M10.97 7H4.9l.7 1.42L4 10h6.1l1.51-1.58L10.97 7Z" fill="#2DBDF1"/><path d="M13.65 10h-2.98l1.54-1.54L11.6 7h2.6l.8 1.46L13.64 10Z" fill="#198FC1"/><path d="M12.3 4H6.79l1.3 2.5h3.76l.77 1.17 1.28-1.4L12.3 4ZM9.54 14H3l3.26-3h3.9L12 9l.87 1.45L9.54 14Z" fill="#2DBDF1"/></svg>
